src/assets/pics/profile-in.svg

<svg fill="none" height="34" viewBox="0 0 34 34" width="34" xmlns="http://www.w3.org/2000/svg"><circle cx="17" cy="17" fill="#000" r="17"/><g fill="#7FFFD4"><path d="m9.31776 25h3.49534v-11.3156h-3.49534z"/><path d="m9 10.0719c0 1.1156.90031 2.0187 2.0654 2.0187 1.1122 0 2.0125-.9031 2.0125-2.0187 0-1.11565-.9003-2.0719-2.0125-2.0719-1.16509 0-2.0654.95625-2.0654 2.0719z"/><path d="m22.4517 25h3.5483v-6.2156c0-3.0282-.6885-5.4188-4.2368-5.4188-1.6947 0-2.8598.9563-3.3364 1.8594h-.053v-1.5406h-3.3364v11.3156h3.4953v-5.5781c0-1.4875.2648-2.9219 2.1184-2.9219 1.8006 0 1.8006 1.7 1.8006 2.975z"/></g></svg>

<svg width="34" height="34" viewBox="0 0 34 34" fill="none" xmlns="http://www.w3.org/2000/svg">
<circle cx="17" cy="17" r="17" fill="black"/>
<path d="M9.31776 25H12.8131V13.6844H9.31776V25Z" fill="#B9FF66"/>
<path d="M9 10.0719C9 11.1875 9.90031 12.0906 11.0654 12.0906C12.1776 12.0906 13.0779 11.1875 13.0779 10.0719C13.0779 8.95625 12.1776 8 11.0654 8C9.90031 8 9 8.95625 9 10.0719Z" fill="#B9FF66"/>
<path d="M22.4517 25H26V18.7844C26 15.7562 25.3115 13.3656 21.7632 13.3656C20.0685 13.3656 18.9034 14.3219 18.4268 15.225H18.3738V13.6844H15.0374V25H18.5327V19.4219C18.5327 17.9344 18.7975 16.5 20.6511 16.5C22.4517 16.5 22.4517 18.2 22.4517 19.475V25Z" fill="#B9FF66"/>
</svg>
